source/img/bell.svg

<svg width="24" height="24" viewBox="0 0 24 24" fill="none" xmlns="http://www.w3.org/2000/svg">
<path fill-rule="evenodd" clip-rule="evenodd" d="M11 4.08502V3C11 2.44771 11.4477 2 12 2C12.5523 2 13 2.44772 13 3V4.08502C14.897 4.38702 16.3401 5.51801 16.5271 6.91199L16.8689 9.15997C17.2119 11.413 18.0291 13.581 19.2729 15.535L19.894 16.524C19.957 16.633 20 16.744 20 16.857C20 18.041 16.418 19 12 19C7.58105 19 4 18.041 4 16.857C4 16.744 4.04199 16.633 4.10498 16.525L4.72607 15.535C5.97095 13.581 6.78711 11.413 7.12988 9.15997L7.47192 6.91199C7.65991 5.51801 9.10205 4.38702 11 4.08502ZM10.0071 19.924C10.9871 19.992 11.7529 20 12 20C12.1184 20 12.3569 19.9982 12.6816 19.9887C13.0325 19.9785 13.4836 19.9593 13.9919 19.924C13.9924 19.9355 13.9941 19.9466 13.9958 19.9577C13.9978 19.9708 14 19.9839 14 19.998C14 21.102 13.104 21.998 12 21.998C10.896 21.998 10 21.102 10 19.998C10 19.9838 10.002 19.9705 10.0037 19.9573C10.0051 19.9463 10.0066 19.9354 10.0071 19.924Z" fill="#FF9500"/>
</svg>

<svg width="24" height="24" fill="none" xmlns="http://www.w3.org/2000/svg"><path fill-rule="evenodd" clip-rule="evenodd" d="M11 4.085V3a1 1 0 112 0v1.085c1.897.302 3.34 1.433 3.527 2.827l.342 2.248a16.493 16.493 0 002.404 6.375l.621.989c.063.109.106.22.106.333C20 18.041 16.418 19 12 19c-4.419 0-8-.959-8-2.143 0-.113.042-.224.105-.332l.621-.99A16.472 16.472 0 007.13 9.16l.342-2.248C7.66 5.518 9.102 4.387 11 4.085zm-.993 15.839c.98.068 1.746.076 1.993.076a32.88 32.88 0 001.992-.076.31.31 0 00.004.034.258.258 0 01.004.04 2 2 0 01-4 0c0-.014.002-.027.004-.04l.003-.034z" fill="#FF9500"/></svg>
